ukui-icon-theme-default/scalable/apps/aisleriot.svg

<svg id="接龙游戏" xmlns="http://www.w3.org/2000/svg" viewBox="0 0 128 128"><defs><style>.cls-1{fill:#fff;}.cls-2{fill:#e7e7e7;}.cls-3{fill:#a6c3ed;}.cls-4{fill:#81aae0;}.cls-5{fill:#d0090e;}</style></defs><title>128</title><g id="_128" data-name="128"><rect class="cls-1" x="58" y="10" width="60" height="80"/><path class="cls-2" d="M116,12V88H60V12h56m4-4H56V92h64V8Z"/><rect class="cls-3" x="64" y="16" width="48" height="68"/><path class="cls-4" d="M112,27V22h-6V16h-5v6H96V16H91v6H86V16H81v6H76V16H71v6H64v5h7v5H64v5h7v5H64v5h7v5H64v5h7v5H64v5h7v5H64v5h7v7h5V77h5v7h5V77h5v7h5V77h5v7h5V77h6V72h-6V67h6V62h-6V57h6V52h-6V47h6V42h-6V37h6V32h-6V27ZM91,27v5H86V27ZM86,52V47h5v5Zm5,5v5H86V57ZM86,42V37h5v5ZM76,27h5v5H76Zm0,10h5v5H76Zm0,10h5v5H76Zm0,10h5v5H76Zm0,15V67h5v5Zm10,0V67h5v5Zm15,0H96V67h5Zm0-10H96V57h5Zm0-10H96V47h5Zm0-10H96V37h5Zm0-10H96V27h5Z"/><rect class="cls-1" x="34" y="25" width="60" height="80"/><path class="cls-2" d="M92,27v76H36V27H92m4-4H32v84H96V23Z"/><rect class="cls-3" x="40" y="31" width="48" height="68"/><path class="cls-4" d="M88,42V37H82V31H77v6H72V31H67v6H62V31H57v6H52V31H47v6H40v5h7v5H40v5h7v5H40v5h7v5H40v5h7v5H40v5h7v5H40v5h7v7h5V92h5v7h5V92h5v7h5V92h5v7h5V92h6V87H82V82h6V77H82V72h6V67H82V62h6V57H82V52h6V47H82V42ZM67,42v5H62V42ZM62,67V62h5v5Zm5,5v5H62V72ZM62,57V52h5v5ZM52,42h5v5H52Zm0,10h5v5H52Zm0,10h5v5H52Zm0,10h5v5H52Zm0,15V82h5v5Zm10,0V82h5v5Zm15,0H72V82h5Zm0-10H72V72h5Zm0-10H72V62h5Zm0-10H72V52h5Zm0-10H72V42h5Z"/><g id="_1" data-name="1"><rect class="cls-1" x="10" y="38" width="60" height="80"/><path class="cls-2" d="M68,40v76H12V40H68m4-4H8v84H72V36Z"/><path class="cls-5" d="M40,66s5.47-4.5,10-4.5c4.86,0,10,4.74,10,10.94,0,10.51-18.88,22-20,22-.94,0-20-10.44-20-22.83,0-4.17,3.93-10.11,10.06-10.11C34.82,61.53,40,66,40,66Z"/><path d="M65.63,102.06v.5c-.84-.12-1.44.44-1.82,1.69L60.5,114l-1.06-.12-3.69-10.13A1.57,1.57,0,0,0,54,102.56v-.5h3.81v.5c-1,0-1.48.36-1.31.94l.81,2.44H61l.5-1.38a3.77,3.77,0,0,0,.31-1.25c0-.41-.43-.66-1.31-.75v-.5Zm-6.38,9.19,1.56-4.62H57.56Z"/><path d="M20.5,53.94v-.5c.88-.09,1.31-.34,1.31-.75a3.77,3.77,0,0,0-.31-1.25L21,50.06H17.31L16.5,52.5c-.17.58.27.9,1.31.94v.5H14v-.5a1.57,1.57,0,0,0,1.75-1.19l3.69-10.12L20.5,42l3.31,9.75c.38,1.25,1,1.81,1.82,1.69v.5Zm-2.94-4.56h3.25l-1.56-4.63Z"/></g></g></svg>

<?xml version="1.0" encoding="utf-8"?>
<!-- Generator: Adobe Illustrator 24.0.0, SVG Export Plug-In . SVG Version: 6.00 Build 0)  -->
<svg version="1.1" id="接龙游戏" xmlns="http://www.w3.org/2000/svg" xmlns:xlink="http://www.w3.org/1999/xlink" x="0px"
	 y="0px" viewBox="0 0 128 128" enable-background="new 0 0 128 128" xml:space="preserve">
<title>128</title>
<g id="_128">
	<rect x="58" y="10" fill="#FFFFFF" width="60" height="80"/>
	<path fill="#E7E7E7" d="M116,12v76H60V12H116 M120,8H56v84h64V8z"/>
	<rect x="64" y="16" fill="#A6C3ED" width="48" height="68"/>
	<path fill="#81AAE0" d="M112,27v-5h-6v-6h-5v6h-5v-6h-5v6h-5v-6h-5v6h-5v-6h-5v6h-7v5h7v5h-7v5h7v5h-7v5h7v5h-7v5h7v5h-7v5h7v5h-7
		v5h7v7h5v-7h5v7h5v-7h5v7h5v-7h5v7h5v-7h6v-5h-6v-5h6v-5h-6v-5h6v-5h-6v-5h6v-5h-6v-5h6v-5h-6v-5H112z M91,27v5h-5v-5H91z M86,52
		v-5h5v5H86z M91,57v5h-5v-5H91z M86,42v-5h5v5H86z M76,27h5v5h-5V27z M76,37h5v5h-5V37z M76,47h5v5h-5V47z M76,57h5v5h-5V57z
		 M76,72v-5h5v5H76z M86,72v-5h5v5H86z M101,72h-5v-5h5V72z M101,62h-5v-5h5V62z M101,52h-5v-5h5V52z M101,42h-5v-5h5V42z M101,32
		h-5v-5h5V32z"/>
	<rect x="34" y="25" fill="#FFFFFF" width="60" height="80"/>
	<path fill="#E7E7E7" d="M92,27v76H36V27H92 M96,23H32v84h64V23z"/>
	<rect x="40" y="31" fill="#A6C3ED" width="48" height="68"/>
	<path fill="#81AAE0" d="M88,42v-5h-6v-6h-5v6h-5v-6h-5v6h-5v-6h-5v6h-5v-6h-5v6h-7v5h7v5h-7v5h7v5h-7v5h7v5h-7v5h7v5h-7v5h7v5h-7v5
		h7v7h5v-7h5v7h5v-7h5v7h5v-7h5v7h5v-7h6v-5h-6v-5h6v-5h-6v-5h6v-5h-6v-5h6v-5h-6v-5h6v-5h-6v-5H88z M67,42v5h-5v-5H67z M62,67v-5h5
		v5H62z M67,72v5h-5v-5H67z M62,57v-5h5v5H62z M52,42h5v5h-5V42z M52,52h5v5h-5V52z M52,62h5v5h-5V62z M52,72h5v5h-5V72z M52,87v-5
		h5v5H52z M62,87v-5h5v5H62z M77,87h-5v-5h5V87z M77,77h-5v-5h5V77z M77,67h-5v-5h5V67z M77,57h-5v-5h5V57z M77,47h-5v-5h5V47z"/>
	<g id="_1">
		<rect x="10" y="38" fill="#FFFFFF" width="60" height="80"/>
		<path fill="#E7E7E7" d="M68,40v76H12V40H68 M72,36H8v84h64V36z"/>
		<path fill="#D0090E" d="M40,66c0,0,5.5-4.5,10-4.5c4.9,0,10,4.7,10,10.9c0,10.5-18.9,22-20,22c-0.9,0-20-10.4-20-22.8
			c0-4.2,3.9-10.1,10.1-10.1C34.8,61.5,40,66,40,66z"/>
		<path d="M65.6,102.1v0.5c-0.8-0.1-1.4,0.4-1.8,1.7l-3.3,9.8l-1.1-0.1l-3.7-10.1c-0.2-0.8-0.9-1.3-1.8-1.2v-0.5h3.8v0.5
			c-1,0-1.5,0.4-1.3,0.9l0.8,2.4H61l0.5-1.4c0.2-0.4,0.3-0.8,0.3-1.3c0-0.4-0.4-0.7-1.3-0.8v-0.5L65.6,102.1z M59.2,111.3l1.6-4.6
			h-3.2L59.2,111.3z"/>
		<path d="M20.5,53.9v-0.5c0.9-0.1,1.3-0.3,1.3-0.8c0-0.4-0.1-0.9-0.3-1.3L21,50.1h-3.7l-0.8,2.4c-0.2,0.6,0.3,0.9,1.3,0.9v0.5H14
			v-0.5c0.8,0.1,1.6-0.4,1.8-1.2l3.7-10.1l1.1-0.1l3.3,9.8c0.4,1.3,1,1.8,1.8,1.7v0.5H20.5z M17.6,49.4h3.3l-1.6-4.6L17.6,49.4z"/>
	</g>
</g>
</svg>
